src/assets/svg/behance.svg

<svg height="16" viewBox="0 0 24 16" width="24" xmlns="http://www.w3.org/2000/svg"><g fill="#323232" transform="translate(.179329 .948726)"><path d="m9.10247861 6.95901163c.90963029-.70996039 1.49608359-1.81545251 1.49608359-3.05597913 0-2.13729162-1.73877518-3.87606677-3.87596388-3.87606677h-5.95067849c-.42640851 0-.77191983.34561424-.77191983.77191983v13.23307304c0 .4263056.34551132.7719199.77191983.7719199h5.95067849c2.36248637 0 4.28446378-1.9218746 4.28446378-4.2840522 0-1.48260064-.756996-2.79136498-1.90458349-3.56081467zm-2.37988029-5.38820624c1.28591551 0 2.33212419 1.0463116 2.33212419 2.33222711s-1.04620868 2.33212418-2.33212419 2.33212418h-5.17875866v-4.66435129zm0 11.68923341h-5.17875866v-5.48104246h5.17875866c1.51121318 0 2.74062416 1.2295139 2.74062416 2.74072706 0 1.5110074-1.22941098 2.7403154-2.74062416 2.7403154z"/><path d="m17.6177835 3.49864943c-3.1168064 0-5.6526145 2.53570517-5.6526145 5.65261452s2.5358081 5.65261455 5.6526145 5.65261455c1.5098752 0 2.9293843-.5879971 3.9971038-1.6557166.3015634-.3014604.3015634-.7901371.000103-1.0915976-.3014605-.3014604-.7902401-.3014604-1.0917005 0-.7762426.7760368-1.8080421 1.2034745-2.9055063 1.2034745-2.0016395 0-3.6726916-1.4391673-4.0349793-3.33685503h8.915777c.4264085 0 .7719198-.34561423.7719198-.77191982 0-3.11690935-2.5358081-5.65261452-5.6527175-5.65261452zm0 1.54383966c2.0016396 0 3.6726917 1.4390644 4.0350823 3.33685503h-8.0700616c.3622877-1.89779063 2.0333398-3.33685503 4.0349793-3.33685503z"/><path d="m14.144556 1.97920244h6.5348674c.4264085 0 .7719199-.34561424.7719199-.77191983s-.3455114-.77191983-.7719199-.77191983h-6.5348674c-.4264085 0-.7719198.34561424-.7719198.77191983s.3455113.77191983.7719198.77191983z"/></g></svg>

<?xml version="1.0" encoding="UTF-8"?>
<svg width="24px" height="16px" viewBox="0 0 24 16" version="1.1" xmlns="http://www.w3.org/2000/svg" xmlns:xlink="http://www.w3.org/1999/xlink">
    <!-- Generator: Sketch 51.3 (57544) - http://www.bohemiancoding.com/sketch -->
    <title>behance@1x</title>
    <desc>Created with Sketch.</desc>
    <defs></defs>
    <g id="Page-1" stroke="none" stroke-width="1" fill="none" fill-rule="evenodd">
        <g id="About" transform="translate(-195.000000, -479.000000)" fill="#323232" fill-rule="nonzero">
            <g id="behance" transform="translate(195.179329, 479.948726)">
                <path d="M9.10247861,6.95901163 C10.0121089,6.24905124 10.5985622,5.14355912 10.5985622,3.9030325 C10.5985622,1.76574088 8.85978702,0.0269657327 6.72259832,0.0269657327 L0.771919828,0.0269657327 C0.345511315,0.0269657327 0,0.37257997 0,0.798885561 L0,14.0319586 C0,14.4582642 0.345511315,14.8038785 0.771919828,14.8038785 L6.72259832,14.8038785 C9.08508469,14.8038785 11.0070621,12.8820039 11.0070621,10.5198263 C11.0070621,9.03722566 10.2500661,7.72846132 9.10247861,6.95901163 Z M6.72259832,1.57080539 C8.00851383,1.57080539 9.05472251,2.61711699 9.05472251,3.9030325 C9.05472251,5.18894801 8.00851383,6.23515668 6.72259832,6.23515668 L1.54383966,6.23515668 L1.54383966,1.57080539 L6.72259832,1.57080539 Z M6.72259832,13.2600388 L1.54383966,13.2600388 L1.54383966,7.77899634 L6.72259832,7.77899634 C8.2338115,7.77899634 9.46322248,9.00851024 9.46322248,10.5197234 C9.46322248,12.0307308 8.2338115,13.2600388 6.72259832,13.2600388 Z" id="Shape"></path>
                <path d="M17.6177835,3.49864943 C14.5009771,3.49864943 11.965169,6.0343546 11.965169,9.15126395 C11.965169,12.2681733 14.5009771,14.8038785 17.6177835,14.8038785 C19.1276587,14.8038785 20.5471678,14.2158814 21.6148873,13.1481619 C21.9164507,12.8467015 21.9164507,12.3580248 21.6149903,12.0565643 C21.3135298,11.7551039 20.8247502,11.7551039 20.5232898,12.0565643 C19.7470472,12.8326011 18.7152477,13.2600388 17.6177835,13.2600388 C15.616144,13.2600388 13.9450919,11.8208715 13.5828042,9.92318377 L22.4985812,9.92318377 C22.9249897,9.92318377 23.270501,9.57756954 23.270501,9.15126395 C23.270501,6.0343546 20.7346929,3.49864943 17.6177835,3.49864943 Z M17.6177835,5.04248909 C19.6194231,5.04248909 21.2904752,6.48155349 21.6528658,8.37934412 L13.5828042,8.37934412 C13.9450919,6.48155349 15.616144,5.04248909 17.6177835,5.04248909 Z" id="Shape"></path>
                <path d="M14.144556,1.97920244 L20.6794234,1.97920244 C21.1058319,1.97920244 21.4513433,1.6335882 21.4513433,1.20728261 C21.4513433,0.780977021 21.1058319,0.435362783 20.6794234,0.435362783 L14.144556,0.435362783 C13.7181475,0.435362783 13.3726362,0.780977021 13.3726362,1.20728261 C13.3726362,1.6335882 13.7181475,1.97920244 14.144556,1.97920244 Z" id="Shape"></path>
            </g>
        </g>
    </g>
</svg>
